X:6
T:Bound to Have a Little Fun
M:C|
G:Key: G
O:from Gusty Wallace, KY
S:Canote String Band Class, http://stringband.mossyroof.com/BoundToHaveALittleFun.mp3
Z:abc-transcription Josh Larios <hades@elsewhere.org>, 2020.01.14
Z:abc-copyright This transcription is licensed under a Creative Commons Attribution-ShareAlike 4.0 International License.
K:G
[P:A]y0 |: DE | "G"G2 GG BG AF | G2 GF G2 DE | G2 GG BG AG | "C"E2 EG E2 DE | 
"G"G2 GG BG AF | G2 GD B,2 C2 | "D"D2 DD ED EF | "G"G2 GF G2  :|
[P:B]y|: ef | "G"g2 ga g2 d2 | ed Bc d2 d2 | "C"e2 eg e2 d2 | "D"ed Bc d2 ef | 
"G"g2 ga g2 d2 | ed Bc d2 B2 | "Am"A2 A2 BG AG | "C"E2-EG "D"E2 DE | 
"G"G2 GG BG AF | G2 GD B,2 C2 | "D"D2 DD ED EF | "G"G2-GG G2 :|

